public/theme/icons/contact.svg

<svg width="23" height="22" viewBox="0 0 23 22" fill="none" xmlns="http://www.w3.org/2000/svg">
<mask id="path-1-inside-1_215_4286" fill="white">
<path fill-rule="evenodd" clip-rule="evenodd" d="M20.4055 13.4331C21.411 14.1675 21.5922 15.5963 20.8018 16.5584L19.618 17.9994C19.6178 17.9997 19.6174 17.9998 19.6171 17.9996V17.9996C19.6169 17.9994 19.6167 17.9993 19.6165 17.9995C19.4643 18.1632 15.5132 22.2622 7.77453 15.1557C0.0598461 8.07118 3.75159 4.11016 3.92288 3.93427C3.92296 3.93418 3.92291 3.9341 3.92284 3.93401V3.93401C3.92277 3.93391 3.92278 3.93378 3.92286 3.93369L5.22783 2.59839C6.09815 1.70783 7.53823 1.73231 8.3778 2.65192L9.95464 4.37911C10.705 5.20101 10.7107 6.45771 9.96787 7.28641L8.76434 8.62903C8.51611 8.90595 8.51834 9.32648 8.77292 9.59757C9.47823 10.3486 10.1961 11.0724 10.8777 11.6939C11.6386 12.3878 12.5324 13.1081 13.4528 13.8031C13.7499 14.0274 14.1687 13.9841 14.4172 13.7069L15.6263 12.358C16.3692 11.5292 17.6191 11.398 18.5178 12.0544L20.4055 13.4331Z"/>
</mask>
<path d="M20.8018 16.5584L19.8566 15.7819L20.8018 16.5584ZM20.4055 13.4331L19.684 14.421L19.684 14.421L20.4055 13.4331ZM7.77453 15.1557L6.9471 16.0567L6.9471 16.0567L7.77453 15.1557ZM5.22783 2.59839L4.35293 1.74337L5.22783 2.59839ZM8.3778 2.65192L7.47436 3.47672L8.3778 2.65192ZM9.95464 4.37911L9.0512 5.2039L9.0512 5.2039L9.95464 4.37911ZM9.96787 7.28641L9.05696 6.46987L9.96787 7.28641ZM10.8777 11.6939L11.7019 10.7899L11.7019 10.7899L10.8777 11.6939ZM15.6263 12.358L14.7154 11.5414L15.6263 12.358ZM18.5178 12.0544L19.2393 11.0665L18.5178 12.0544ZM8.76434 8.62903L7.85344 7.81249L8.76434 8.62903ZM8.77292 9.59757L7.88119 10.435L8.77292 9.59757ZM3.92286 3.93369L3.04797 3.07868L3.92286 3.93369ZM3.92288 3.93427L4.79929 4.78773L4.79929 4.78773L3.92288 3.93427ZM19.6165 17.9995L18.7205 17.1666L19.6165 17.9995ZM13.4528 13.8031L12.7156 14.7793L13.4528 13.8031ZM14.4172 13.7069L15.3281 14.5234L14.4172 13.7069ZM19.618 17.9994L20.5632 18.776L19.618 17.9994ZM21.7471 17.335C22.9837 15.8296 22.7002 13.5942 21.127 12.4452L19.684 14.421C20.1219 14.7408 20.2008 15.3629 19.8566 15.7819L21.7471 17.335ZM20.5632 18.776L21.7471 17.335L19.8566 15.7819L18.6727 17.2229L20.5632 18.776ZM6.9471 16.0567C10.9751 19.7557 14.2173 20.7157 16.6374 20.5234C19.0327 20.333 20.3234 19.0358 20.5124 18.8324L18.7205 17.1666C18.7574 17.1269 17.9965 17.961 16.4435 18.0844C14.9153 18.2059 12.3126 17.6622 8.60196 14.2546L6.9471 16.0567ZM3.04647 3.0808C2.8387 3.29416 1.64353 4.62312 1.66822 6.96713C1.69303 9.32267 2.94537 12.3819 6.9471 16.0567L8.60196 14.2546C4.88901 10.845 4.12988 8.38142 4.11471 6.94136C4.09942 5.48977 4.83577 4.75027 4.79929 4.78773L3.04647 3.0808ZM4.35293 1.74337L3.04797 3.07868L4.79775 4.78871L6.10272 3.45341L4.35293 1.74337ZM9.28123 1.82712C7.96769 0.388335 5.71461 0.350048 4.35293 1.74337L6.10272 3.45341C6.4817 3.06562 7.10877 3.07628 7.47436 3.47672L9.28123 1.82712ZM10.8581 3.55431L9.28123 1.82712L7.47436 3.47672L9.0512 5.2039L10.8581 3.55431ZM10.8788 8.10295C12.041 6.8064 12.0321 4.84023 10.8581 3.55431L9.0512 5.2039C9.37794 5.5618 9.38043 6.10902 9.05696 6.46987L10.8788 8.10295ZM9.67525 9.44557L10.8788 8.10295L9.05696 6.46987L7.85344 7.81249L9.67525 9.44557ZM11.7019 10.7899C11.0513 10.1967 10.3567 9.49705 9.66465 8.76013L7.88119 10.435C8.59974 11.2002 9.34097 11.9481 10.0534 12.5978L11.7019 10.7899ZM14.19 12.8269C13.2872 12.1452 12.4254 11.4496 11.7019 10.7899L10.0534 12.5978C10.8519 13.3259 11.7777 14.0711 12.7156 14.7793L14.19 12.8269ZM14.7154 11.5414L13.5063 12.8903L15.3281 14.5234L16.5373 13.1745L14.7154 11.5414ZM19.2393 11.0665C17.8332 10.0396 15.8777 10.2448 14.7154 11.5414L16.5373 13.1745C16.8607 12.8136 17.405 12.7565 17.7963 13.0423L19.2393 11.0665ZM21.127 12.4452L19.2393 11.0665L17.7963 13.0423L19.684 14.421L21.127 12.4452ZM7.85344 7.81249C7.18707 8.55586 7.18619 9.69495 7.88119 10.435L9.66465 8.76013C9.85048 8.95801 9.84515 9.25603 9.67525 9.44557L7.85344 7.81249ZM4.89625 3.19309C5.26345 3.67551 5.222 4.35461 4.79775 4.78871L3.04797 3.07868C2.62355 3.51295 2.58209 4.19232 2.94943 4.67493L4.89625 3.19309ZM4.79929 4.78773C4.90291 4.68132 5.02794 4.51345 5.09688 4.27817C5.16835 4.03422 5.15366 3.80625 5.10686 3.62627C5.06435 3.4628 4.9975 3.34609 4.96415 3.292C4.9302 3.23695 4.89854 3.1961 4.89625 3.19309L2.94943 4.67493C2.94718 4.67197 2.91555 4.63116 2.88163 4.57616C2.8483 4.52211 2.78148 4.40544 2.73898 4.24201C2.69219 4.06208 2.67749 3.83414 2.74896 3.59024C2.81788 3.355 2.94289 3.18717 3.04647 3.0808L4.79929 4.78773ZM20.2479 16.9515C20.2619 16.9599 20.2223 16.9353 20.1789 16.9129C20.1341 16.8897 20.0179 16.8322 19.857 16.7999C19.6765 16.7638 19.4471 16.761 19.2054 16.8473C18.9744 16.9297 18.8163 17.0635 18.7205 17.1666L20.5124 18.8324C20.4167 18.9355 20.2587 19.0691 20.0279 19.1515C19.7862 19.2378 19.5569 19.235 19.3765 19.1989C19.2157 19.1667 19.0997 19.1092 19.055 19.0861C19.0117 19.0637 18.9722 19.0392 18.9863 19.0477L20.2479 16.9515ZM12.7156 14.7793C13.5271 15.3922 14.6611 15.2674 15.3281 14.5234L13.5063 12.8903C13.6763 12.7007 13.9726 12.6627 14.19 12.8269L12.7156 14.7793ZM18.6727 17.2229C19.0578 16.7542 19.7282 16.6387 20.2479 16.9515L18.9863 19.0477C19.5066 19.3608 20.1778 19.2452 20.5632 18.776L18.6727 17.2229Z" fill="url(#paint0_linear_215_4286)" mask="url(#path-1-inside-1_215_4286)"/>
<path d="M13.0171 4.80208C15.568 5.08755 16.4514 5.88018 17.1809 8.2719" stroke="url(#paint1_linear_215_4286)" stroke-linecap="round"/>
<path d="M13.0178 2.14951C17.2589 2.61129 18.7239 3.92645 19.9246 7.90518" stroke="url(#paint2_linear_215_4286)" stroke-linecap="round"/>
<defs>
<linearGradient id="paint0_linear_215_4286" x1="2.81869" y1="5.1645" x2="18.5124" y2="19.2324" gradientUnits="userSpaceOnUse">
<stop stop-color="#2036FF"/>
<stop offset="1" stop-color="#C348B0"/>
</linearGradient>
<linearGradient id="paint1_linear_215_4286" x1="13.3012" y1="4.46119" x2="17.465" y2="7.93102" gradientUnits="userSpaceOnUse">
<stop stop-color="#2036FF"/>
<stop offset="1" stop-color="#C348B0"/>
</linearGradient>
<linearGradient id="paint2_linear_215_4286" x1="13.4921" y1="1.58037" x2="20.3989" y2="7.33604" gradientUnits="userSpaceOnUse">
<stop stop-color="#2036FF"/>
<stop offset="1" stop-color="#C348B0"/>
</linearGradient>
</defs>
</svg>

<svg xmlns="http://www.w3.org/2000/svg" width="23" height="22" fill="none">
    <mask id="b" fill="#fff">
        <path fill-rule="evenodd"
              d="M20.406 13.433a2.167 2.167 0 0 1 .396 3.125L19.618 18h-.002c-.152.164-4.103 4.263-11.841-2.843C.06 8.07 3.752 4.11 3.923 3.934l1.305-1.336c.87-.89 2.31-.866 3.15.054l1.577 1.727c.75.822.756 2.079.013 2.907L8.764 8.63a.716.716 0 0 0 .009.969 39 39 0 0 0 2.105 2.096c.76.694 1.654 1.414 2.575 2.11a.716.716 0 0 0 .964-.097l1.21-1.349a2.167 2.167 0 0 1 2.89-.304z"
              clip-rule="evenodd"/>
    </mask>
    <path fill="url(#a)"
          d="m20.802 16.558-.945-.776zm-.396-3.125-.722.988zM7.775 15.156l-.828.9zM5.228 2.598l-.875-.855zm3.15.054-.904.825zm1.577 1.727-.904.825zm.013 2.907-.911-.816zm.91 4.408.824-.904zm4.748.664-.91-.817zm2.892-.304.721-.988zM8.764 8.63l-.91-.817zm.009.969-.892.837zm-4.85-5.664-.875-.855zm0 0 .876.854zM19.617 18l-.896-.833zm-6.164-4.197-.737.976zm.964-.096.911.816zm5.201 4.292.945.777zm2.13-.664a3.39 3.39 0 0 0-.621-4.89l-1.443 1.976c.438.32.517.942.173 1.36zm-1.185 1.441 1.184-1.441-1.89-1.553-1.184 1.44zm-13.616-2.72c4.028 3.7 7.27 4.66 9.69 4.467 2.396-.19 3.686-1.487 3.875-1.69l-1.791-1.666c.036-.04-.724.794-2.277.917-1.529.122-4.131-.422-7.842-3.83zm-3.9-12.975c-.208.213-1.403 1.542-1.379 3.886.025 2.356 1.277 5.415 5.28 9.09l1.654-1.802C4.889 10.845 4.13 8.38 4.115 6.94c-.016-1.451.72-2.19.684-2.153zm1.306-1.338L3.048 3.08l1.75 1.71 1.305-1.336zm4.928.084a3.39 3.39 0 0 0-4.928-.084l1.75 1.71a.944.944 0 0 1 1.371.024zm1.577 1.727L9.281 1.827l-1.807 1.65 1.577 1.727zm.02 4.549a3.39 3.39 0 0 0-.02-4.549l-1.807 1.65c.327.358.33.905.006 1.266zM9.676 9.446l1.204-1.343L9.057 6.47 7.853 7.812zm2.027 1.344a38 38 0 0 1-2.037-2.03L7.88 10.435c.719.765 1.46 1.513 2.172 2.163zm2.488 2.037a36 36 0 0 1-2.488-2.037l-1.649 1.808a38 38 0 0 0 2.663 2.181zm.525-1.286-1.209 1.35 1.822 1.632 1.21-1.348zm4.524-.475a3.39 3.39 0 0 0-4.524.475l1.822 1.633a.943.943 0 0 1 1.26-.132zm1.888 1.38-1.888-1.38-1.443 1.976 1.888 1.379zM7.853 7.811a1.94 1.94 0 0 0 .028 2.623L9.665 8.76c.185.198.18.496.01.686zM4.896 3.193a1.22 1.22 0 0 1-.098 1.596l-1.75-1.71a1.224 1.224 0 0 0-.099 1.596zM4.8 4.788a1.224 1.224 0 0 0 .165-1.496c-.034-.055-.065-.096-.068-.099L2.95 4.675c-.002-.003-.033-.044-.067-.099a1.22 1.22 0 0 1 .164-1.495zm15.449 12.164c.014.008-.026-.017-.07-.04a1.226 1.226 0 0 0-1.457.255l1.791 1.665a1.22 1.22 0 0 1-1.457.254c-.043-.022-.083-.047-.069-.038zm-7.532-2.173a1.94 1.94 0 0 0 2.612-.256l-1.822-1.633a.507.507 0 0 1 .684-.063zm5.957 2.444a1.22 1.22 0 0 1 1.575-.271l-1.262 2.096c.52.313 1.192.197 1.577-.272z"
          mask="url(#b)"/>
    <path stroke="url(#c)" stroke-linecap="round" d="M13.017 4.802c2.551.286 3.434 1.078 4.164 3.47"/>
    <path stroke="url(#d)" stroke-linecap="round" d="M13.018 2.15c4.24.461 5.706 1.776 6.907 5.755"/>
    <defs>
        <linearGradient id="a" x1="2.819" x2="18.512" y1="5.165" y2="19.232" gradientUnits="userSpaceOnUse">
            <stop stop-color="#2036FF"/>
            <stop offset="1" stop-color="#C348B0"/>
        </linearGradient>
        <linearGradient id="c" x1="13.301" x2="17.465" y1="4.461" y2="7.931" gradientUnits="userSpaceOnUse">
            <stop stop-color="#2036FF"/>
            <stop offset="1" stop-color="#C348B0"/>
        </linearGradient>
        <linearGradient id="d" x1="13.492" x2="20.399" y1="1.58" y2="7.336" gradientUnits="userSpaceOnUse">
            <stop stop-color="#2036FF"/>
            <stop offset="1" stop-color="#C348B0"/>
        </linearGradient>
    </defs>
</svg>
